usr/share/icons/big-icons/symbolic/status/alarm-symbolic.svg

<svg width="16" height="16" version="1.1" xmlns="http://www.w3.org/2000/svg">
 <path d="m4.95 1a3 3 0 0 0-2.95 3 3 3 0 0 0 0.486 1.637 6 6 0 0 0-0.486 2.363 6 6 0 0 0 2.402 4.803l-0.33 0.826 0.01 4e-3a0.923 0.923 0 0 0-0.08 0.367c0 0.524 0.475 1 0.998 1 0.396 0 0.764-0.273 0.92-0.633l8e-3 4e-3 0.261-0.652a6 6 0 0 0 1.811 0.281 6 6 0 0 0 1.813-0.28l0.26 0.651 0.01-4e-3c0.156 0.36 0.522 0.633 0.918 0.633 0.523 0 1-0.477 1-1a0.921 0.921 0 0 0-0.08-0.367l8e-3 -4e-3 -0.33-0.828a6 6 0 0 0 2.401-4.801 6 6 0 0 0-0.486-2.363 3 3 0 0 0 0.486-1.637 3 3 0 0 0-3-3 3 3 0 0 0-0.05 0 3 3 0 0 0-2.224 1.045 6 6 0 0 0-0.726-0.045 6 6 0 0 0-0.727 0.045 3 3 0 0 0-2.273-1.045 3 3 0 0 0-0.05 0zm0 1a2 2 0 0 1 1e-3 0 2 2 0 0 1 0.049 0 2 2 0 0 1 1.078 0.316 6 6 0 0 0-2.996 2.247 2 2 0 0 1-0.082-0.563 2 2 0 0 1 1.95-2zm5.98 0a2 2 0 0 1 0.021 0 2 2 0 0 1 0.049 0 2 2 0 0 1 2 2 2 2 0 0 1-0.082 0.563 6 6 0 0 0-2.998-2.247 2 2 0 0 1 1.01-0.316zm-2.93 1a5 5 0 0 1 5 5 5 5 0 0 1-5 5 5 5 0 0 1-5-5 5 5 0 0 1 5-5zm1.969 2.531a0.503 0.503 0 0 0-0.25 0.156l-1.656 1.657-1.157-1.157c-0.157-0.257-0.568-0.306-0.78-0.093s-0.163 0.624 0.093 0.78l1.5 1.501a0.518 0.518 0 0 0 0.687 0l2-2c0.293-0.298-0.024-0.91-0.437-0.844z" fill="#363636"/>
</svg>

<svg xmlns="http://www.w3.org/2000/svg" width="16" height="16">
<path fill="#fcfcfc" d="M4.95 1A3 3 0 0 0 2 4a3 3 0 0 0 .486 1.637A6 6 0 0 0 2 8a6 6 0 0 0 2.402 4.803l-.33.826.01.004a.9.9 0 0 0-.08.367c0 .524.475 1 .998 1 .396 0 .764-.273.92-.633l.008.004.261-.652A6 6 0 0 0 8 14a6 6 0 0 0 1.813-.28l.26.651.01-.004c.156.36.522.633.918.633.523 0 1-.477 1-1a.9.9 0 0 0-.08-.367l.008-.004-.33-.828A6 6 0 0 0 14 8a6 6 0 0 0-.486-2.363A3 3 0 0 0 14 4a3 3 0 0 0-3-3h-.05a3 3 0 0 0-2.224 1.045A6 6 0 0 0 8 2a6 6 0 0 0-.727.045A3 3 0 0 0 5 1zm0 1H5a2 2 0 0 1 1.078.316 6 6 0 0 0-2.996 2.247A2 2 0 0 1 3 4a2 2 0 0 1 1.95-2m5.98 0H11a2 2 0 0 1 2 2 2 2 0 0 1-.082.563A6 6 0 0 0 9.92 2.316 2 2 0 0 1 10.93 2M8 3a5 5 0 0 1 5 5 5 5 0 0 1-5 5 5 5 0 0 1-5-5 5 5 0 0 1 5-5m1.969 2.531a.5.5 0 0 0-.25.156L8.063 7.344 6.906 6.187c-.157-.257-.568-.306-.78-.093s-.163.624.093.78l1.5 1.501a.52.52 0 0 0 .687 0l2-2c.293-.298-.024-.91-.437-.844"/>
</svg>
